Catalina-dark/status/16/gpm-mouse-040.svg

<?xml version="1.0" encoding="UTF-8" standalone="no"?>
<!-- Created with Inkscape (http://www.inkscape.org/) -->

<svg
   xmlns:dc="http://purl.org/dc/elements/1.1/"
   xmlns:cc="http://creativecommons.org/ns#"
   xmlns:rdf="http://www.w3.org/1999/02/22-rdf-syntax-ns#"
   xmlns:svg="http://www.w3.org/2000/svg"
   xmlns="http://www.w3.org/2000/svg"
   xmlns:xlink="http://www.w3.org/1999/xlink"
   xmlns:sodipodi="http://sodipodi.sourceforge.net/DTD/sodipodi-0.dtd"
   xmlns:inkscape="http://www.inkscape.org/namespaces/inkscape"
   version="1.0"
   width="16"
   height="16"
   id="svg3205"
   inkscape:version="0.91 r13725"
   sodipodi:docname="gpm-mouse-040.svg">
  <sodipodi:namedview
     pagecolor="#ffffff"
     bordercolor="#666666"
     borderopacity="1"
     objecttolerance="10"
     gridtolerance="10"
     guidetolerance="10"
     inkscape:pageopacity="0"
     inkscape:pageshadow="2"
     inkscape:window-width="1366"
     inkscape:window-height="633"
     id="namedview3010"
     showgrid="true"
     fit-margin-left="2.5"
     fit-margin-right="2.5"
     fit-margin-top="0"
     fit-margin-bottom="0"
     inkscape:zoom="19.84375"
     inkscape:cx="4.7076679"
     inkscape:cy="7.173536"
     inkscape:window-x="0"
     inkscape:window-y="33"
     inkscape:window-maximized="1"
     inkscape:current-layer="svg3205">
    <inkscape:grid
       type="xygrid"
       id="grid2984" />
  </sodipodi:namedview>
  <metadata
     id="metadata13">
    <rdf:RDF>
      <cc:Work
         rdf:about="">
        <dc:format>image/svg+xml</dc:format>
        <dc:type
           rdf:resource="http://purl.org/dc/dcmitype/StillImage" />
        <dc:title></dc:title>
      </cc:Work>
    </rdf:RDF>
  </metadata>
  <defs
     id="defs3207">
    <linearGradient
       x1="14"
       y1="3"
       x2="14"
       y2="21"
       id="linearGradient2398"
       xlink:href="#linearGradient3587-6-5-3"
       gradientUnits="userSpaceOnUse"
       gradientTransform="translate(-1.0001235,-5)" />
    <linearGradient
       id="linearGradient3587-6-5-3">
      <stop
         id="stop3589-9-2-0"
         style="stop-color:#000000;stop-opacity:1"
         offset="0" />
      <stop
         id="stop3591-7-4-7"
         style="stop-color:#363636;stop-opacity:1"
         offset="1" />
    </linearGradient>
    <linearGradient
       x1="66.09668"
       y1="9.3638258"
       x2="66.09668"
       y2="27.363825"
       id="linearGradient2395"
       xlink:href="#linearGradient3587-6-5-3"
       gradientUnits="userSpaceOnUse"
       gradientTransform="translate(-52.096803,-11.363826)" />
    <linearGradient
       x1="4.9554448"
       y1="2.6841583"
       x2="4.9554448"
       y2="13.496136"
       id="linearGradient7390"
       xlink:href="#linearGradient3587-6-5-3"
       gradientUnits="userSpaceOnUse" />
    <linearGradient
       x1="7.9109159"
       y1="4.5762329"
       x2="7.9109159"
       y2="11.649005"
       id="linearGradient7392"
       xlink:href="#linearGradient3587-6-5-3"
       gradientUnits="userSpaceOnUse" />
    <linearGradient
       x1="10.186814"
       y1="2.7742527"
       x2="10.186814"
       y2="13.317288"
       id="linearGradient7394"
       xlink:href="#linearGradient3587-6-5-3"
       gradientUnits="userSpaceOnUse" />
    <linearGradient
       x1="13.917011"
       y1="0.88217813"
       x2="13.917011"
       y2="15.183488"
       id="linearGradient7396"
       xlink:href="#linearGradient3587-6-5-3"
       gradientUnits="userSpaceOnUse" />
    <linearGradient
       id="linearGradient5263">
      <stop
         id="stop5265"
         style="stop-color:#a0d5ff;stop-opacity:1"
         offset="0" />
      <stop
         id="stop5267"
         style="stop-color:#a0d5ff;stop-opacity:1"
         offset="1" />
    </linearGradient>
  </defs>
  <path
     inkscape:connector-curvature="0"
     d="m 8.490585,4.666706 -2.4241711,3.63629 1.2120525,0 0,3.030298 2.4241712,-3.636402 -1.2120526,0 z M 7.9831943,1.5503968e-4 C 6.9335137,0.02410104 5.7512547,0.08575504 4.7588685,0.74615764 a 0.37179013,0.35752043 0 0 0 -0.072728,0.058281 C 3.6552048,1.9617493 3.8423927,3.4968807 3.6800528,4.6743262 a 0.37179013,0.35752043 0 0 0 -0.012104,0.023313 C 3.4814968,7.715153 3.4918064,10.774848 3.9709855,13.789541 a 0.37179013,0.35752043 0 0 0 0,0.01164 c 0.1558608,0.798159 0.6726423,1.645339 1.6242853,1.865007 0.00926,0.0022 0.014888,0.0096 0.02424,0.01164 l 0,-0.01164 c 1.4439085,0.425688 3.0031133,0.425803 4.4486012,0.104906 0.748669,-0.166452 1.524373,-0.612419 1.793986,-1.422067 0.0012,-0.0033 -0.0012,-0.0082 0,-0.01164 0.351901,-0.967293 0.345087,-1.963073 0.448497,-2.867448 a 0.37179013,0.35752043 0 0 0 0.0121,-0.01164 C 12.515387,8.557283 12.502202,5.6284962 12.116629,2.7277433 12.063245,2.3163643 11.976663,1.8635592 11.765105,1.4455516 11.555838,1.032076 11.213577,0.65806774 10.710532,0.45476694 c -0.0023,-7.703e-4 0.0023,-0.010744 0,-0.011638 -0.0035,-0.00148 -0.0085,0.00148 -0.0121,0 C 9.8189396,0.06348824 8.8581625,0.03271914 8.0074479,1.9003968e-4 a 0.37179013,0.35752043 0 0 0 -0.02424,0 z"
     style="color:#7b7c7e;fill:#4d4d4d;fill-opacity:1;fill-rule:evenodd;stroke:none"
     id="path6686-8-1-8-7" />
</svg>

<svg width="16" height="16" version="1.0" xmlns="http://www.w3.org/2000/svg">
<path d="m8.4906 4.6667-2.4242 3.6363h1.2121v3.0303l2.4242-3.6364h-1.2121zm-0.50739-4.6666c-1.0497 0.023946-2.2319 0.0856-3.2243 0.746a0.37179 0.35752 0 0 0-0.072728 0.058281c-1.0309 1.1573-0.84375 2.6924-1.0061 3.8699a0.37179 0.35752 0 0 0-0.012104 0.023313c-0.18645 3.0175-0.17614 6.0772 0.30304 9.0919a0.37179 0.35752 0 0 0 0 0.01164c0.15586 0.79816 0.67264 1.6453 1.6243 1.865 0.00926 0.0022 0.014888 0.0096 0.02424 0.01164v-0.01164c1.4439 0.42569 3.0031 0.4258 4.4486 0.10491 0.74867-0.16645 1.5244-0.61242 1.794-1.4221 0.0012-0.0033-0.0012-0.0082 0-0.01164 0.3519-0.96729 0.34509-1.9631 0.4485-2.8674a0.37179 0.35752 0 0 0 0.0121-0.01164c0.19269-2.901 0.17951-5.8298-0.20607-8.7306-0.053384-0.41138-0.13997-0.86418-0.35152-1.2822-0.20927-0.41348-0.55153-0.78748-1.0546-0.99078-0.0023-7.703e-4 0.0023-0.010744 0-0.011638-0.0035-0.00148-0.0085 0.00148-0.0121 0-0.87949-0.37964-1.8403-0.41041-2.691-0.44294a0.37179 0.35752 0 0 0-0.02424 0z" color="#7b7c7e" fill="#4d4d4d" fill-rule="evenodd"/>
</svg>
